X: 41667
T: Upperchurch, The
R: polka
M: 2/4
K: Gmajor
|:B>A|GD GA|B2 B>A|GD GA|B2 B^c/d/|
ed BG|A2 AB/d/|ed BA|G2:|
|:Bd|g>f ge|f>e fd|e>f ge|d2 dB/d/|
ed BG|A2 AB/d/|1 ed BA|G2:|2 ed ef|g2g2||

